#TITLE Those Imprisoned by Fate
#ALBUM Chrono Cross
#COMPOSER Yasunori Mitsuda
#ARRANGED Gi Nattak
# Converted from binary by mfvitools

#WAVE 0x20 -- 0x1B
#WAVE 0x21 -- 0x0D
#WAVE 0x22 -- 0x16
#WAVE 0x23 -- 0x12

#SFXV ` *

{6}
l16t60%v32%x204%b0,70%f0,0%e1%k1 $1 v96p68@32o5r1  ^1  ^1  
^1  ^1  ^1  ^1  
^1  ^1  ^1  ^1  
^1  ^1  ^1  ^1  
^1  ^1  ^1  ^1  
^1  ^1  ^1  ^1  
c8r8c8f8g8c8f8g8  r32<c2^4r8^32r2  
;1

l16
{1}
l16%e1%k1 $2 v92p62@33o5r1  
^1  ^1  ^4c4g4f4  ^r2^8^c8d8  
d+4g4f4c4  d4g+4g+4g8f8  d4d+4>g4<c4  >a+2<b4<c8d8  
d+4g4f4c4  d4g+4g+4g8f8  d+4f4d4d+4  g1  
f2d1  d+4f4g4d+4  d4g+4g4f4  d+4d4c4d+4  
d+4f4d2  d+4f4g4d+4  d4g+4g4f4  d+4d8d+8c1  
>a+1  <c1  ^2^4r8^r2  
;2

l16
{2}
l16%e1%k1 $3 v92p62@33o5r1  
^1  ^1  ^1  ^1  
^1  ^1  ^1  ^2>b4<c8d8  
d+4g4f4c4  d4g+4g+4g8f8  d+4f4d4d+4  g1  
f2d1  d+4f4g4d+4  d4g+4g4f4  d+4d4c4d+4  
d+4f4d2  d+4f4g4d+4  d4g+4g4f4  d+4d8d+8c1  
>a+1  <c1  ^2^4r8^r2  
;3

l16
*{3}*`{5}`
l16%e1%k1 $4 v50p62@33o5v192,100d2>v50v192,100a+2  
^v50r2^4^8^  <v192,100d2>v50v192,100a+2  v50v192,100g1  ^v50r2^4^8^  
v192,100g2v50v192,100f2  v50v192,100f2v50v192,100a+2  v50v192,100g2v50r2  
v192,100f2>v50v192,100g2  v50o5v192,100c2v50v192,100c2  v50v192,100d2v50v192,100d4v50d+8v192,100f8  
v50o4v192,100a+4v50o2v192,100a+4v50o4v192,100f4v50o2v192,100g4  
v50o4v192,100g+1  v50<v192,100c2>v50v192,100b1  ^2v50v192,100a+2  
v50v192,100g+2v50v192,100a+1  v50<v192,100d+2v50v192,100d+4>v50v192,100g+4  
v50v192,100b1  v50v192,100a+2v50v192,100g+2  v50v192,100a+1  v50v192,100d+1  
v50<v192,100d1  v50r1  p68@32f2^4^8^r2  
;4

l16
*{4}*`{7}`
l16%e1%k1 $5 v50p64@33o5>v192,100g2v50v192,100d+2  
^v50r2^4^8^  v192,100g2v50v192,100d+2  v50v192,100c1  ^v50r2^4^8^  
v192,100c2>v50v192,100g+2  v50v192,100a+2v50<v192,100d+4v50v192,100d4  
v50v192,100c2v50v192,100d+2  v50>v192,100a+2v50r2  <v192,100c2v50v192,100d+2  
v50v192,100f2v50v192,100a+4>v50v192,100d4  v50<v192,100g2v50o2v192,100g+4v50r4  
o4v192,100c1  v50v192,100d2v50v192,100d1  ^2v50v192,100d+2  v50v192,100f2v50v192,100g2  
v50v192,100f2v50v192,100g+2  v50v192,100a+4v50r4v192,100d2  v50v192,100d+4v50v192,100f4v50v192,100d+2  
v50v192,100f2v50v192,100g2  v50v192,100f2v50>v192,100g+1  v50<v192,100f1  
v50v192,100g1  ^2^4v50v192,100r8^r2  
;5

l16
*{5}*`{8}`
l16%e1%k1 $6 v50p64@33o5>v192,100c2>v50v192,100g+2  
^v50r2^4^8^  <v192,100c2>v50v192,100g+2  v50v192,100f1  ^v50r1  
^1  ^1  ^4^8^v192,100g+2v50r1  v192,100c2>v50v192,100g+2  
v50v192,100a+2<v50v192,100d+4v50r4  v192,100c4v50r2^4  >v192,100f1  
v50v192,100g1  ^1  v50v192,100g+2v50v192,100a+2  v50<v192,100c2>v50v192,100a+2  
v50v192,100f2<v50v192,100c+2  v50>v192,100g1  v50v192,100g+2v50v192,100a+2  
v50<v192,100c2>v50v192,100a+2  v50v192,100g+1  v50v192,100a+1  v50<v192,100c1  
^2^4v50r8^r2  
;6

l16
*{7}*`{3}`
l16%e1%k1 $7 v10p0@34o3r1  ^1  ^1  
^1  ^1  ^1  ^1  
^1  ^1  ^1  ^1  
^1  ^1  ^1  v15g32g32v20g32g32v25g32g32v30g32g32v35g32g32v40g32g32v45g32g32v50g32g32v55g32g32v60g32g32v65g32g32v70g32g32v75g32g32v80g32g32v85g32g32v90g32g32  
v100g+1  v10r1  ^1  v15g32g32v20g32g32v25g32g32v30g32g32v35g32g32v40g32g32v45g32g32v50g32g32v55g32g32v60g32g32v65g32g32v70g32g32v75g32g32v80g32g32v85g32g32v90g32g32  
v100g+1  r1  ^1  ^1  
v50p68@32<c8g8r2^4  ^32<g2^8^^32r8^r2  
;7

l16
*{8}*`{4}`
l16%e1%k1 $8 r1  
^1  ^1  ^1  ^1  
^1  ^1  ^1  ^1  
^1  ^1  ^1  ^1  
^1  ^2v10p127@35o5a32v20a32v25a32v30a32v35a32v40a32v45a32v50a32v55a32v60a32v65a32v70a32v75a32v80a32v85a32v90a32  
v100a1  v10r1  ^1  ^2a32v20a32v25a32v30a32v35a32v40a32v45a32v50a32v55a32v60a32v65a32v70a32v75a32v80a32v85a32v90a32  
v100a1  r1  ^1  ^1  
^1  v50p68@32c2^8^^32r4^32  r4r8r32r32
;8

l16
