#TITLE Boss Battle 2
#ALBUM Chrono Trigger
#COMPOSER Yasunori Mitsuda
#ARRANGED emberling
# Converted from binary by mfvitools

#WAVE 0x20 -- 0x0B
#WAVE 0x21 -- 0x9A
#WAVE 0x22 -- 0x73
#WAVE 0x23 -- 0x02
#WAVE 0x24 -- 0x16
#WAVE 0x28 -- 0x14
#WAVE 0x29 -- 0x50

#drum "a"=5a |8 p80
#drum "b"=5a |8 p80 v96
#drum "c"=5a |8 p80 v88
#drum "d"=5a |8 p80 v80
#drum "e"=5a |8 p80 v72
#drum "f"=5a |8 p80 v64
#drum "x"=5a |8 p80 v56
#drum "h"=5a |8 p80 v48

#drum "g"=5g |9 p64 v127

#def 0o= o6
#def 1o= o5
#def 2o= o5
#def 3o= o6
#def 4o= o6

#def 0v= v64

{1}
l16t150%x232%v40%b0,85%f0,0{FD}127%e1%k2r4|1v127p64'1o+o1'm12,24,198[2r4g6r12f4.  
r8e6r12v85e24r24v100e24r24v100e24r24d+4.  ^rr4d8.rc+4.  r8c8v85c24v100c24r24v127c24r24v85c24r24v100c24r24v127>b8.rb8.  
r<] $1 [2r4v120d+^48>g+r48<c+r48c4.r24>g+  r48a+r48d+r48c+r48c2r4  
r4<d+^48>g+24r24<c+24r24c4.r24>g+r48  a+24r24<c24r24c+24r24g+4.r24g+24r24a+24r24g+24r24f+24r24  
]r4fr48d+24r24f24r24>a+4r12g+24r24a+24r24  <c+8.^32^64r64c+24r24>a+24r24<c+24r24d+4.^r  
r4c+r48c24r24c+24r24c4.r24>g+24r24  f2^4.r8  r6a+24r24<fr48d+24r24f24r24>a+4r12g+24r24a+24r24  
<c+8.^32^64r64c+24r24>a+24r24<c+24r24d+4.^r  v100[4r4f24r24f+24r24g24r24g+24r8.r48f24r24f+24r24g24r24  
g+24r4.r12]v90g+24r24g24r24d+24r24v100f+24r24f24r24c+24r24  v110e24r24d+24r24>b24r24v127<d24r24c+24r24>a24r24[2r4b48<c>fr48a+r48  
a4.r24fr48gr48cr48>a+r48a2  r4r4<b48<c>f24r24a+24r24a4.  r24fr48g24r24a24r24a+24r24<f4.r24f24r24g24r24f24  
r24d+24r24>]<r4dr48c24r24d24r24>g4r12f24  r24g24r24a+8.^32^64r64a+24r24g24r24a+24r24<c4.  
^rr4>a+r48a24r24a+24r24a4.  r24f24r24d2^4.  r8r6f24r24<dr48c24r24d24r24>g4r12f24  
r24g24r24a+8.^32^64r64a+24r24g24r24a+24r24<c4.  ^rv127d24r24v80d+24r24v90f24r24v100g24r24v110f24r24v120d+24r24v127d24r8.r48c24r24v80c+24  
r24v90d+24r24v100f24r24v110d+24r24v120c+24r24v127c24r8.r48v120[4r12c24r8c24r4  
r24v80>a+24r24v90<c24r24v100c24r24v110c24r24v127c24r24]
;1

l16
{5}
l16{FD}120%e1%k2r4|1v100p64'1o+o1'[2r4d6  
r12c+4.r8>b6r12v60b24r24v80b24r24  v100b24r24a+4.^rr4a8.  rg+4.r8g8v60g24v80g24r24v100g24r24v60g24r24v80g24  
r24v100f+8.rf+8.r<] $4 |2v50p64'2o+o1'[2a+12g+12a+12g+12g12g+12  g12f12d+12f12d+12f12a+12g+12a+12g+12g12g+12  
g12f12d+12f12d+12c12a+12g+12a+12g+12g12g+12  g12f12d+12f12d+12f12a+12g+12a+12g+12f+12g+12  
f+12f12f+12f12d+12c+12][2g+12f+12g+12f+12f12f+12  f12d+12f12d+12c+12d+12g+12f+12g+12f+12f12f+12  
f12d+12f12d+12c+12>a+12j2,2 <f+12f12d+12f12d+12c+12  d+12c+12c12c+12c12>a+12<f+12f12d+12f12f12c+12  
d+12c+12c12c+12c12>a+12<] $2 |1v73p64'1o+o1'[4r4c24r24c+24r24d24r24  
d+24r8.r48c24r24c+24r24d24r24d+24r4.r12  ]v80d+24r24d24r24>a+24r24v90<c+24r24c24r24>g+24r24v100b24r24a+24r24f+24r24v110a24r24g+24r24e24r24  
|2v30p64'2o+o1'[2g12f12g12f12e12f12e12d12c12d12c12d12  g12f12g12f12e12f12e12d12c12d12c12>a12  
<g12f12g12f12e12f12e12d12c12d12c12d12  g12f12g12f12d+12f12d+12d12d+12d12c12>a+12  
<][2f12d+12f12d+12d12d+12d12c12d12c12>a+12<c12  f12d+12f12d+12d12d+12d12c12d12c12>a+12g12  
j2,3 <d+12d12c12d12c12>a+12<c12>a+12a12a+12a12g12  <d+12d12c12d12d12>a+12<c12>a+12a12a+12a12g12  
<] $3 |1p64'1o'v110a24r24v60a+24r24v70<c24r24v80d24r24v90c24r24v100>a+24r24v110a24r8.r48g24r24v60g+24r24v70a+24r24  
v80<c24r24v90>a+24r24v100g+24r24v110g24r8.r48v100[4r12g24r8g24r4  
r24v60f24r24v70g24r24v80g24r24v90g24r24v100g24r24]
;4

l16
{7}
l16{FD}120%e1%k2r4|1v100p64'1o'[2r4a+6  
r12g+4.r8g+6r12g+24r24v60g+24r24  v80g+24r24v100g4.^rr4f+8.  rf4.r8e8v60e24v80e24r24v100e24r24v60e24r24v80e24  
r24v100d+8.rd+8.r] $7 |0'0v*v.6'p64'0o-o1'[2[3a+r8.a+r4  r48<crr24cr8.>]<d+r8.d+r4  
r48c+rr24c+r8.>][2[2d+r8.d+r4  r48c+r48d+r48d+r8.]j2,5 [2c+r8.c+r4  
r48cr48c+r48c+r8.]] $5 %k0{FD}127v127%e0[4"!!!og2g2  g4g4"]"g1"  {FD}120%e1%k2|0'0v*v.6'p64'0o-o1'[2[3gr8.gr4r48arr24ar8.  
]<cr8.cr4r48>a+rr24a+r8.  ][2[2<cr8.cr4r48>a+r48<cr48cr8.  >]j2,6 >a+r8.a+r4r48ar48a+r48a+r8.  
a+r8.a+r4r48ar48a+r48a+r8.  ] $6 |1p64'1o-o1'v110g24r24v60g+24r24v70a+24r24v80<c24r24v90>a+24r24v100g+24r24v110g24r8.r48f24r24v60f+24r24v70g+24r24  
v80a+24r24v90g+24r24v100f+24r24v110f24r8.r48v100[4r12f24r8f24r4  
r24v60d+24r24v70f24r24v80f24r24v90f24r24v100f24r24]
;7

l16
{2}
l16{FD}120%e1%k2r4|2v80p64'2o'[2r4g8.  
rf4.^re4.^  rd+4.^rr4d8.  rc+4.^rc4.^  r>b4.^r<] $10 |0'0v*v.5'p64'0o-o1'[2[3fr8.fr4  
r48grr24gr8.]a+r8.a+r4  r48g+rr24g+r8.][2[2a+r8.a+r4  r48g+r48a+r48a+r8.]j2,8 [2g+r8.g+r4  
r48g+r48g+r48g+r8.]] $8 [2|0'0v*v.9'p27'0o'%a8r4f12f+12g12g+12  r6|2v127p100'2o'%a10f12f+12g12g+12g12f+12f12r6|0'0v*v.9'p27'0o'%a8r4  
f12f+12g12g+12r6|2v100p100'2o'%a10f12f+12g12g+12g12f+12  f12r6]|0p64'0o'%a8'0v*v.5'g+12g12d+12'0v*v.6'f+12f12c+12'0v*v.7'e12d+12>b12  
'0v*v.8'<d12c+12>a12%y'0v*v.5'[2[3dr8.dr4r48err24  er8.]gr8.gr4r48frr24  fr8.][2[2gr8.gr4r48fr48gr48  
gr8.]j2,9 [2fr8.fr4r48fr48fr48  fr8.]] $9 %k0{FD}127v127%e0"!!!o g2^4  
g2^4"{FD}127%e1%k2|0'0v*v.5'p64'0o+o1'%a8[4c12>g12f12  c12f12g12<c12>g12f12c12f12g12<]
;10

l16
{4}
l16{FD}120%e1%k2r4  
|0'0v*v.9''0o-o3'%a8[2g6^12^24^24^24^24^24^24a+6^12^6^12  <c+6^12^24^24^24^24^24^24c6^12^6^12  
>b6^12^24^24^24^24^24^24a+6^12^6^12  a6^12^24^24^24^24^24^24g+6^12^6^12  
]{FD}100 $13 |3'3o-o1'p64[2[3v127f12r12v100f24r24v127f12r12v100f24r24v127f12r12v100f24r24v127f12r12v100f24r24  
]v127f+12r12v100f+24r24v127f+12r12v100f+24r24v127f+12r12v100f+24r24v127f+12r12v100f+24r24  
][2[2v127b12r12v100b24r24v127b12r12v100b24r24v127b12r12v100b24r24v127b12r12v100b24r24  
]j2,11 [2v127a+12r12v100a+24r24v127a+12r12v100a+24r24v127a+12r12v100a+24r24v127a+12r12v100a+24r24  
]] $11 v127[4f12r6f12f+12g12g+12r6f12f+12g12  g+12g12f+12f12r6]<c+4>b4  
a+4a4<[2[3v127d12r12v100d24r24v127d12r12v100d24r24  v127d12r12v100d24r24v127d12r12v100d24r24]v127d+12r12v100d+24r24v127d+12r12v100d+24r24  
v127d+12r12v100d+24r24v127d+12r12v100d+24r24]>[2[2v127g+12r12v100g+24r24v127g+12r12v100g+24r24  
v127g+12r12v100g+24r24v127g+12r12v100g+24r24]j2,12 [2v127g12r12v100g24r24v127g12r12v100g24r24  
v127g12r12v100g24r24v127g12r12v100g24r24]] $12 v127grr24gr48gr48<dr48>gr48  
gr8.<c+rr24c+r48c+r48g+r48c+r48c+r8.  [4v120crr24v100cr48v120crr24v100cr48v120crr24v100cr48v120crr24v100cr48  
]
;13

l16
{6}
l16{FD}127%k2|4p64v100'4o-o3'g12v120g12v127g12g4v80g12v100g12v127g12a+4  
a+12v60a+12v80a+12v127<c+4v80c+12v100c+12v127c+12c4  v80c12v100c12v127c12>b4v80b12v100b12v127b12a+4  
a+12v60a+12v80a+12v127a4v80a12v100a12v127a12g+4  v80g+12v100g+12v127g+12g4v80g12v100g12v127g12a+4  
a+12v60a+12v80a+12v127<c+4v80c+12v100c+12v127c+12c4  v80c12v100c12v127c12>b4v80b12v100b12v127b12a+4  
a+12v60a+12v80a+12v127a4v80a12v100a12v127a12g+4  v80g+12v100g+12v127g+12 $14 f4f3f6  
f4f4f3f6  f4f4f3f6  f4f+4f+3f+6  f+4f4f3f6  
f4f4f3f6  f4f4f3f6  f4f+4f+3f+6  f+4b4b3b6  
b4b4b3b6  b4a+4a+3a+6  a+4a+4a+3a+6  a+4b4b3b6  
b4b4b3b6  b4f4f2  f4f4g+4f4  f2f4f4  
g+4f4f2  f4f4g+4f4  f2f4f4  g+4v10a32v13a32v17a32v20a32v24a32v27a32v31a32v34a32v38a32v41a32v45a32v49a32v52a32v56a32v59a32v63a32v66a32v70a32v73a32v77a32v80a32v84a32v88a32v91a32  
v95a32v98a32v102a32v105a32v109a32v112a32v116a32v120a32v127<d4d3d6  
d4d4d3d6  d4d4d3d6  d4d+4d+3d+6  d+4d4d3d6  
d4d4d3d6  d4d4d3d6  d4d+4d+3d+6  d+4>g+4g+3g+6  
g+4g+4g+3g+6  g+4g4g3g6  g4g4g3g6  g4g+4g+3g+6  
g+4g+4g+3g+6  g+4g4g3g6  <c+4c+3c+6c4  c3c6c4c4  
c3c6c4c4  c3c6c4c4  c3c6c4>
;14

l16
{3}
l16{FD}70%e1"e12c12b12"  
[2"c6x24e24c12a12a12a6x24e24c12a12a12  
a12x12a12c12x12a12c12e12x24e24c12a12a12  
a6a12x12e12c12a6x24e24c12x12c12  a12x12e12c12x12e12c12x24e24c12a12x12e12"  
] $16 [2[3
"c12h12x24e24c12a12a12a12x24e24c12a12x12e12  
c12h12x24e24c12a12a12a12x12e12c12x12e12  
c12h12x24e24c12a12a12a12x12e12c12x12e12  
c12x24e24c12a12a12a12a12a12x24e24c12a12a12"  
]"a12h12x24e24c12a12a12a12x12e12c12x12e12  
c12x24e24c12a12a12a12a12a12x24e24c12x12e24c24"  
j2,15 [4"a4a12x12e12c4a12x12e12  c12x24e24d12c4]a12x24f24e24d24c12e12c12  
a12x24f24e24d24c12e12c12"] $15 "a12x12e12c24x24e12c12  
a6x12c12x12e12c24x24e12c12a6x12"  
[3"c6x24e24c12a12a12a12x24e24c12a12x12e12"  
]"c12x24e24c12a12a12a12a12a12x24e24c12a12a12"  

;16

l16
{8}
l16{FD}127r4v127[4"g1  ^1"  ] $17 "g1  ^1"  
^1  %k2|1v127p64'1o+o1'%e1^2^4f24r24d+24r24c+24r24  %e0%k0v127"!!!og1  ^1  
^1  ^2^4"%k2|1v127p64'1o+o1'%e1f24r24d+24r24c+24r24  %e0%k0v127"!!!og1  ^1  
^1  ^1  g1  ^1  
"%k2|1v127p64'1o'%e1[4r4a+24r24b24r24<c24r24c+24r24r6>a+24r24b24r24<c24r24  
c+24r24r6r4>]<c+24r24c24r24>g+24r24b24r24a+24r24f+24r24  a24r24g+24r24e24r24g24r24f+24r24d24r24%e0%k0v127"!!!og1  
^1  ^1  "%k2|1v120p64'1o+o1'%e1^2^4d24r24c24r24>a+24r24  %e0%k0v127"!!!og1  
^1  ^1  "%k2|1v120p64'1o+o1'%e1^2^4d24r24c24r24>a+24r24  %e0%k0v127"!!!og1  
^1  ^1  ^1  g1  
^1  ^2^2  ^2g1  ^1  
^1  ^1  "
;17

l16
