#TITLE Cursed Lands
#ALBUM Final Fantasy V
#COMPOSER Nobuo Uematsu
#ARRANGED emberling
# Converted from binary by mfvitools

#VARIANT ~ enh
#VARIANT / nat

#WAVE 0x20 -- ~0x40~/0x0A/
#WAVE 0x21 -- ~0x0D~/0x0D/
#WAVE 0x22 -- ~0x10~/0x10/
#WAVE 0x23 -- 0x17
#WAVE 0x24 -- 0x16
#WAVE 0x25 -- ~0x6D~/0x12/


{1}
l16t125%b0,100%f0,0%v50%x180p40|0m12,20,195%e1 $1 %a12~v100~/v64/r1  r1  r1  
r2r4r6~o4~/o5/a+12  <c12r12c+12c12r12d+12c+12r12c12>a+12r12g+12  a+12r12<c12>a+12r12g12g+12r12a+12g+12r12a+12  
<c12r12c+12c12r12d+12c+12r12c12>a+12r12g+12  a+12r12<c12>a+12r12g12g+12r12a+12g+12r12<d+12  
f12r12f+12f12r12g+12f+12r12f12d+12r12c+12  d+12r12f12d+12r12c12c+12r12d+12c+12r12d+12  
f12r12f+12f12r12g+12f+12r12f12d+12r12c+12  d+12r12f12d+12r12c12c+12r12d+12c+12r12>a+12  
<c12r12c+12c12r12d+12c+12r12c12>a+12r12g+12  a+12r12<c12>a+12r12g12g+12r12a+12g+12r12a+12  
<c12r12c+12c12r12d+12c+12r12c12>a+12r12g+12  a+12r12<c12>a+12r12g12g+12r12a+12g+12r12<d+12  
f12r12f+12f12r12g+12f+12r12f12d+12r12c+12  d+12r12f12d+12r12c12c+12r12d+12c+12r12d+12  
f12r12f+12f12r12g+12f+12r12f12d+12r12c+12  d+12r12f12d+12r12c12c+12r12c12>a+12r12g+12  
r1  r1  g4.g24g+24a24a+4.a+24b24<c24  c+4.c+24d24d+24e4g4  
~v100~/v64/f+4f8r8~v85~/v52/f+4f8r8  ~v70~/v40/f+4f8r8~v55~/v28/f+4f8r8  
;1

l16
{7}
l16p50|0m12,20,195%e1 $2 %a12~v90~/v56/r1  
r1  r1  r2r4r6~o4~/o5/c+12  d+12r12f12d+12r12f+12f12r12d+12c+12r12c12  
c+12r12d+12c+12r12>a+12<c12r12c+12c12r12c+12  d+12r12f12d+12r12f+12f12r12d+12c+12r12c12  
c+12r12d+12c+12r12>a+12<c12r12c+12c12r12f+12  g+12r12a+12g+12r12b12a+12r12g+12f+12r12f12  
f+12r12g+12f+12r12d+12f12r12f+12f12r12f+12  g+12r12a+12g+12r12b12a+12r12g+12f+12r12f12  
f+12r12g+12f+12r12d+12f12r12f+12f12r12c+12  d+12r12f12d+12r12f+12f12r12d+12c+12r12c12  
c+12r12d+12c+12r12>a+12<c12r12c+12c12r12c+12  d+12r12f12d+12r12f+12f12r12d+12c+12r12c12  
c+12r12d+12c+12r12>a+12<c12r12c+12c12r12f+12  g+12r12a+12g+12r12b12a+12r12g+12f+12r12f12  
f+12r12g+12f+12r12d+12f12r12f+12f12r12f+12  g+12r12a+12g+12r12b12a+12r12g+12f+12r12f12  
f+12r12g+12f+12r12d+12f12r12d+12c+12r12c12  r1  r1  c4.c24c+24d24d+4.d+24e24f24  
f+4.f+24g24g+24a4<c4  ~v90~/v56/>a+4a8r8~v75~/v44/a+4a8r8  ~v60~/v32/a+4a8r8~v45~/v20/a+4a8r8  

;2

l16
{2}
l16%e1 $3 r1  r1  r1  o5|5%r10v64p60p192,5~%a1a+1~/%a1g1/
v65p70|1m12,20,195[2~o5~/o5/[8a+12<c12c+12f12c+12c12>]<[8d+12f12f+12a+12f+12f12  
]]>g4.g24g+24a24a+4.a+24b24<c24  c+4.c+24d24d+24e4g4  >g4.g24g+24a24a+4.a+24b24<c24  
c+4.c+24d24d+24e4g4  v65f+4f8r8v55f+4f8r8  v45f+4f8r8v35f+4f8r8  

;3

l16
{6}
l16%e1 $4 r1  r1  r1  o5|5%r10k2v64p60p192,125~%a1a+1~/%a1g1/  
v60p80|1m12,20,195~o5~/o5/[2[8c+12d+12f12a+12f12d+12][8f+12g+12a+12<d+12>a+12g+12  
]]>c4.c24c+24d24d+4.d+24e24f24  f+4.f+24g24g+24a4<c4  >c4.c24c+24d24d+4.d+24e24f24  
f+4.f+24g24g+24a4<c4  v60>c2v50c2  v40c2v30c2  
;4

l16
{5}
l16v127p55|2%e1 $5 ~o3~/o3/a+1  
^1  a+1  ^1  a+1  
^1  a+1  ^1  <d+1  
^1  d+1  ^1  >a+1  
^1  a+1  ^1  <d+1  
^1  d+1  ^1  c1  
^1  c1  ^1  ^1  
^1  
;5

l16
{8}
l16p90|3r64 $6 [5o5^4v85c6v60c12^4v85>a6v60a12  
^4v85<c6v60c12^4v85>a4  ^4v85<c6v60c12^4v85>a6v60a12  ^4v85<c6v60c12^12v85>a6v60a6a12  
]^1  r1  r1  r1  
v85r4<c6v60c12^4v85c4  ^4v85c6v60c12^4v85c4  
;6

l16
{4}
l16p30|3 $7 [5^4v90o4a6a12^4v65f6v90f12  
^4v65a6v90a12^4v65f4  ^4v90a6v65a12^4v90f6v65f12  ^4v90a6v65a12^12v90f6v65f6f12  
]^1  r1  r1  r1  
v90r4a6v65a12^4v90a4  ^4v90a6v65a12^4v90a4  
;7

l16
{3}
l16v125p65|4%e1 $8 o3a+1  
^2^4^6f12  a+1  ^2^4^6a+12  a+1  
^2^4^6f12  a+1  ^2^4^6a+12  <d+1  
^2^4^6>a+12  <d+1  ^2^4^6d+12  >a+1  
^2^4^6f12  a+1  ^2^4^6a+12  <d+1  
^2^4^6>a+12  <d+1  ^2^4^6d+12  c2>g2  
<c2>g2  <c2>g2  <c2>g2  <c1  
c1  
;8

l16
