#TITLE On That Day, Five Years Ago
#ALBUM Final Fantasy VII
#COMPOSER Nobuo Uematsu
#ARRANGED Gi Nattak
# Converted from binary by mfvitools

#WAVE 0x20 -- 0x0D
#WAVE 0x21 -- 0x1B


{1}
l16%v50%x192%b0,70%e1%k1 $1 t64v10p60@32o5v102,80a2t72b4<c4  
g2f+2  r4>a4b4<c4  e4d4>a4b4  <c2v30>v192,80a1  
v102,0^2r1  ^1  v102,80g2a4a+4  <g2d1  
v255,0^1  ^2r1  ^1  ^1  
v102,80e2d4c4  >b2g2  a1  v192,0^1  
r1  ^1  v102,80g+2a4b4  <e2>b2  
t64<c+1  ^1  ^1  v192,0^1  
t100r1  
;1

l16
{2}
l16%e1%k1 $2 v10p64@32o5v192,80e1  g2f+2  f1  
f2e2  v10v192,80e1  v192,0^1  v192,80f+1  
v192,0^1  v192,80d1  ^1  v192,0^1  
v192,80e2v60e2  v40e2v20e2  v10v192,80e1  v192,0^1  
v192,80f1  e1  e2f2  e2f2  
v10v192,80e1  v192,0^1  v192,80f1  f+1  
v10v192,80f1  ^1  ^1  v192,0^1  
r1  
;2

l16
{3}
l16%e1%k1 $3 v10p64@32o5v192,80c1  d1  c1  
d2d2  v10v192,80c1  v192,0^1  v192,80d1  
v192,0^1  >v192,80a+1  ^1  v192,0^1  
v192,80b2v60<c2  >v40b2v20<c2  v10>v192,80b1  v192,0^1  
<v192,80c1  >b1  <c+2d2  c+2d2  
v10v192,80c+1  v192,0^1  v192,80d1  v192,0^1  
v192,80c+1  ^1  ^1  v192,0^1  
r1  
;3

l16
{4}
l16%e1%k1 $4 v10p64@32o5>v132,80a1  a1  a1  
a2b2  v10v132,80a1  v192,0^1  v132,80a1  
v192,0^1  v132,80g1  ^1  v192,0^1  
v132,80g2g2  g2g2  v10v132,80g1  v192,0^1  
v10v132,80a1  g1  a2a2  a2a2  
v10v132,80a1  v192,0^1  v10v132,80b1  v192,0^1  
v10v132,80a+1  ^1  ^1  v192,0^1  
r1  
;4

l16
{5}
l16%e1%k1 $5 v50p64@33o5r1  ^1  ^1  
^1  ^4^a8^^32r32<c4^8^  ^32r4^32>a8^^32r32<c4^8^  ^32r4^32>a8^^32r32<d4^8^  
^32r4^32>a8^^32r32<d4^8^  ^32r1  ^1  ^1  
^8^^32e2e2  e2e2  r1  ^1  
^1  ^1  e2f2  e2f2  
r1  ^1  ^1  ^1  
^2^4^8^v90f4  v85f4v80f4v75f4v70f4  v65f4v60f4v50f4v40f4  v30f4v20f4v10fr1  

;5

l16
{6}
l16%e1%k1 $6 v50p64@33o5r1  ^1  ^1  ^1  
^4^32e4a2  r4e4a2  r4f+4a2  r4f+4a2  
r1  ^1  ^1  ^8b8^32r32b4^<c8^32r32c4  
^>b8^32r32b4^<c8^32r32c4  ^r1  ^1  ^1  
^1  c+8^32r32c+4^d8^32r32d4^  c+8^32r32c+4^d8^32r32d4^  r1  
^1  ^1  ^1  ^2^4^8^^32v90c+4  
v85c+4v80c+4v75c+4v70c+4  v65c+4v60c+4v50c+4v40c+4  v30c+4v20c+4v10c+8r1  

;6

l16
{7}
l16%e1%k1 $7 v50p64@33o5r1  ^1  ^1  ^1  
^4^32c4e2  r4c8^^32r32e4^8^^32r4  ^32d8^^32r32f+4^8^^32r4  ^32d8^^32r32f+4^8^^32r1  
^1  ^1  ^^32g4^g8^32r32g4^g8  ^32r32g4^g8^32r32g4^g8  
^32r1  ^1  ^1  ^1  
^32a4^a8^32r32a4^a8^32  r32a4^a8^32r32a4^a8^32  r1  ^1  
^1  ^1  ^1  v90a+4v85a+4v80a+4v75a+4  
v70a+4v65a+4v60a+4v50a+4  v40a+4v30a+4v20a+4v10a+8^r1  
;7

l16
{8}
l16%e1%k1 $8 v50p64@33o5r1  
^1  ^1  ^1  >a1  
r32a1  a2^4^8^^32r32  a2^4^8^^32r1  
^1  ^1  <e2e2  e2e2  
e1  r1  ^1  ^1  
e2f2  e2f2  e1  r1  
^1  ^1  ^1  v90g4v85g4v80g4v75g4  
v70g4v65g4v60g4v50g4  v40g4v30g4v20g4v10g4  r1  
;8

l16
