#TITLE Zanarkand
#ALBUM Final Fantasy X
#COMPOSER Nobuo Uematsu
#ARRANGED emberling

#VARIANT ~ enh
#VARIANT / nat
#SFXV ` *

#WAVE 0x20 ~0x58~/0x18/
#WAVE 0x21 ~0x8A~/0x01/
#WAVE 0x22 ~0x8B~/0x32/
#WAVE 0x23 ~0x8C~/0x1b/
#WAVE 0x24 ~0x79~/0x00/

#def global= t90 %v40 %x255 %f0,0 `'e1'`*'e0'*

#def o2=|0 ~o2~/o4/
#def o3=|0 ~o3~/o5/
#def o4=|1 o4
#def o5=|2 o5
#def o6=|3 o6
#def o7=~|4 o6~/|3 o7/

#def <4= ~<|1~ />|1/
#def <5= ~<|2~ /<|2/
#def <6= ~<|3~ /<|3/
#def <7= ~|4~ /</
#def >6= ~|3~ />/
#def >5= ~>|2~ />|2/
#def >4= ~>|1~ />|1/
#def >3= ~>|0~ /<|0/

#def e1=%b0,104
#def e0=%b12,10

{1}
'global'%e1 p64
$
'o5'v59&101e v73d8^48 r8^64 v67&116c r12
r8^32 v70d2 v76&21c &33r '>4'v63b2^24 r48
r4^24 '<5'v59&23c &2r v76g16^64 r6 '<6'v71c8.^32 &37r v69c2^48 r4^64
'o4'v61&25b r12^64 '<5'v81&21b &26r '<6'v93&101d &26r

r4.^16 'o4'v69&25a &23r '<5'v76b16^64 r32^64 v85a8^64 &49r v72&101a
r4^64 '>4'v68&26f r12^48 '<5'v84f8 r12^32 a3^64 r2^8.
'>4'v70&26e &21r '<5'v87e12^48 &29r v71&31g r12^48 v57c4^24
r24^64 v87f+8^64 &21r %r24v75&25c '>4'v73&29d &17r '<5'v87d12^64 r48 v70&26e &21r %r25v80c8 'o3'v81g8^32 &17r

'<4'v87&23g r8 v84b4 &2r v77e8^48 &114r '<5'v69c4^32
r24^32 v85f+8^48 r12^64 %r25v87&25c '>4'v76&33d &13r '<5'v89d16^32 r48 v81e8^32 r12 %r24v78&25c 'o3'v83&29g r16^32 '<4'v84g12^48
&26r v84&46b r48 v75e8^64 &114r '<5'v61&46c r12^48 v84f+8^64
r16^32 %r24v85&25c '>4'v76d8^32 &17r '<5'v87&21d &47r %r25v87c8 'o3'v77g8^48 r16^32 '<4'v87g16^32 r48 v84a12^32

&53r v62c2^4 &5r v67&129d
r8^48 '>3'v64&59a &37r v49&21b &26r '<4'v71c6
r1r3 v55a12^32 &117r
v80&26f &21r 'o7'v87d4 &46r 'o4'v78&31g &37r '<5'v85&34a

r8. '>4'v81e8^64 r12^64 '<5'v87e16^32 r8^64 v84g8^32 r12^48 '>4'v72&29b r12 '<5'v93b12^32 &79r
v63&116f+ &66r v81&21e r48 v80a16^32 &5r v79&29b
r12^64 %r25&29a %rv57&29b &101r '>4'%r23v89a8^32 '>3'v67&29b &113r
v80g8^48 &114r v89&26a r3^64

'o5'v87c+24^32 r6^64 'o3'v84f+8.^64 r6 '<4'v89&25g+ v87a8 %r25v94&34b %rv69&125c+
&34r '>3'v64&50g &53r '<4'%r22v60g4^24 %rv62&134f+
&33r 'o2'v63b12^32 r48 <v80b16 &13r '<4'v87&34d+
r1&140r
;

{2}
%e1 p64
$
'o5'v55b4.^24 r4.^48 '<6'v63&86c &46r
&31r '>5'v68&62a &87r v60&85b &23r
&105r '<6'v78d16^64 r6 v77e8 &31r v73&91e
r4.^24 '>5'v82&21f+ &26r '<6'v83&25c+ &126r

&109r '>5'v84e12 r4^32 '<6'v80&29c r8 v79c2^64
r4.^48 '>5'v80c12^64 &26r v85&29g &217r
'>4'v79b12^48 r8^48 '<5'v80f+12^32 &26r a24^32 r6^64 &50g
r12^48 v78&25e &47r '>4'v80a16^32 r4^48 '<5'&23f+ r4 '>4'v83d12^64 r8^64

v87&25a r4. v84b12^48 r4^64 '<5'v69g8^48 r8.^32 v77&59g
&13r v73&23e &47r '>4'v85a16^32 &49r '<5'v78f+12^64 &53r '>4'v83d12^48 &25r
v87&23a &74r v80b12^64 r48 '<5'v87e12^64 r48 v76&21f+ r64 v72g6 &37r v83&55g
r24^32 v76e8 &46r '>4'v80a12^64 &50r '<5'f+12^32 r4 '>4'v81d12^64 &50r

v76&23b %r25v79&50f+ %rv72&25g r8 v77g12^32 &1r v83&17b r24 v79&26g &184r
v83&37e &33r v68&26f+ &46r v77g12^64 r8^48
'<5'v83&69e r8 v76e8^64 &119r v79e12^48 r48 v81a12^64
r64 v84&25b &71r v59c16^32 r32 v80f16^32 r8^64 v80&29a r8.^32 v81d12^64 r48 v84&21g &25r

v81&25b r8.^32 '>4'v81&21b &26r '<5'v87&23f+ &23r %r24v93&49b %rv82&21f+ r8 '<6'v93c+8
&1r v87d8^48 r8^48 v49&91f+ r3^64 'o4'v71a8 &124r
v54b3 &41r v78b4^48 &26r v83f+12^32
&2r v85b12^64 r64 '<5'v87c+8 v80d16^64 r32^64 '>4'%r25v87f+4  %rv80d16^32 &5r v79g12^64 r64 v85a12^32 r64 v80b12 r32 %r24v87&50d %r&17e r48 v84a16

r24^64 v81b8^64 &21r %r25v96e4^64 %rv93c+12^32 &1r v90f+8 &83r '<5'v62c+2^12
&49r '>4'v50&55g r8.^24 v68b24^64 &46r v68&53a
r4^24 v73&21a r2^12 v84&26f+ v87&29b
r1&95r
;

{5}
%e1 p64
$
'o7'v87&26e &73r v94&25%r24e %rv84&17d r16^64 v61&97c r6^64
r8^32 v87d8^48 r3^64 v94&25%r25d v84&30%r24c '>6'v63b4.^32 r8^32
&177r v78&29%r23f+ %rv69g4.^16
&66r v92&77f+ r8.^48 v87&41f+ &62r

&203r %r23v98&29d %rv79&90e
&177r v84c12^64 r8^48 v90c8^48 r12^64 v100&26g
r4^24 '>5'v59g8.^48 &31r v96&29b &45r v63&73b
r3^48 v75&33f+ r8. %r24v84&25g %rv80&21a &26r v72&89g

&29r v87d8 &1r v77g8.^24 r64 v87e16^32 &5r v71f+12^32 &26r v84a16 r24^64 v73b2^32
r8.^64 v89a6 &37r %r25v87&23g %r22v73a4 %rv84&97b
&21r v80&25d v76&41g r8^48 v93b8^32 r16^32 v76a24^32 
r24 v81&82b r4^24 v82f+8^32 r8.^64 %r24v71&23g %rv84&21a &26r v76&57g r8.

v93&23g &26r v76&21d r8^64 v81&17c r4.^16 v64&21c &138r
v59&38c r32^64 '>4'v81a12^64 r8^32 v59&43b r64 '<5'v93&47e v85&21c
r4 '<6'v84c12^64 r48 v89e16^32 r4^48 %r24v89c4 %rv89&31g &92r
v77c8^48 r16^32 v69g4^64 r12^64 '>5'v81&25g r12^32 '<6'%r24v80c8 %rg2

r12^64 %r25v89d16 %rv90g2^16 &43r v69f+4.^16
&33r %r24v87e12^48 %rv78&115a &55r v73&90e
r48 v81c12^32 r16^32 %r22v72&172f+ '>5'v84&57f+
&38r v99&17f+ &33r v89&17a &29r v84&13g &33r v89f+24^32 r6^64 v90e4

r8.^24 v89b16^32 r6 '<6'v93&107c+ &47r v87c+4^24
r4 v93c+12^32 &33r '>5'v63g2^6
&31r v57&61c+ &49r v69e12 &170r v96d+8.^24
&244r
;

{4}
%e1 p64
$
r8^64 'o6'v90e8^64 &21r v84&25b &23r '<7'v97f+12^64 r24^32 v83&109e &23r
r4^32 '>6' v94&26d &21r v96a8 &25r '<7'v98&30%r24e %rv84&101d r48^64
r1r3 '>6'v91a4.
&175r v87&111b

&248r '<7'v100&71d &26r v87&81c 
&58r '>6'v87f8 &23r v98f6 &17r v94a8
&31r e4.^64 r12^32 v98e8^64 &69r
v90&50f+ &45r v93&55d r8.^64 v84&31c r12 '>5'v90&97b

&115r v96b8^32 &17r '<6'v99&13f+ &59r v100&58f+
r8. v84f+6^64 r6^64 %r25v94e12^32 %rv90&17f+ r8^32 v92&94g
&49r v100&74e r12^64 v103e8 &69r v92f+4^64 &133r v85c8^64 r12^48 '>5'v92b4^48 &63r

%r25v100a8^64 %rv87&25e &23r v92e12^48 &29r v94e16^32 &34r v76f+12^48  r6^64 v87a4^24
r4 v75e8.^24 &25r v90g8^48 r12^32 v87d8 &92r v87&43g
&50r v85g8 &23r '<6'v90&31e &21r v93a2^12
&5r %r25v84e8 %rv87&57a &37r v71&23f &23r v93&116b

&17r '<7'v98&103e &43r '>6'v89&106b
&34r '<7'v90&103c+ &63r '>6'v92&116a
&25r v84b24^32 &46r '<7'v92&58d+ &49r 'o5'v100&61b
&33r '<6'd12^32 &29r '>5'v83b12^48 &25r v90b16^32 &29r v87b16 r8. v93&55a

&37r '<6'v97&23c+ r8^64 v87f+2^32
&105r v93e3^32 r8. '>5'v85&117b r8.^48 v83&81a
&1r v87f+6^64 &53r v75f+3^32 &91r
v87&165f+ &90r
;

{3}
%e1 p64
$
r4^64 'o6'v87&34g &71r '<7'v84g2^48 r6
&79r '>6'v92f+8^48 &73r '<7'v85f+4.^32 r8^32
&55r '>6'v84b8^48 r12^48 v89b12^32 r8^64 v92&23b &29r &57b
&69r '<7'v96&37d &209r

r4.^16 v93&31e &17r v98&25e r12^32 v98&23e r8^32 &58e
r3^64 v94g8^32 r1r3 %r24v91&151c
'>6'v99f+16 r16 v90g3^64
r8^48 %r22v90&117e %rv101&23e v93d8^64 &165r

v101e3^32 &23r v106&25e r12^32 v101g4^64
r8.^24 v96g24^32 &33r v94&29a r8.^64 %23v103g8 %rv98a24^32 &33r v98&89b
&169r %r22v99&25f+ %rv94g4.^16
r24 v93e32^48 &37r v96&59d r24 v103e12^48 r64 v93&29d r2^3

'>5'v94&23b &26r v94b16^32 r8^32 v96&21b r6 v89b4^24 r4^64
'<6'v93d12^48 r8^32 '>5'v87g8.^32 r4^32 v92&26f+
r1&209r
'o7'v90e8. r24^64 v86&69e r8 v92&47c &93r v96g12^64

r8^48 v98&92g &141r
v99&21f+ &31r v90&91f+ &164r
v95&43e r32^48 v96&58e &196r
'>6'v97f+12^48 &29r v94f+16^32 &29r v105e24^32 &33r v101d16 r8. v100c+4^16

r6 v101a12^64 r6 v99&94a &58r v90&122g+
&139r v87f+16^64 &151r
'>5'v89&58a &1r v92&145b
r1r4.^24
;

{6}
%e1 p64
$
[9r1] &243r 'o6'v83c2^64 ##2070
r1r1r4.^16 v90&63c ##2601
r1r1&116r v89c2^48 ##3201
[13r1]&159r '>5'v87&97a r4^24 v76&129g+
&135r %r22v56&255d r1r1
;

{7}
%e1 p64
$
[31r1] &59r 'o4'v75g+2^8 &13r [4r1]
;

{8}
$
r16 'e1' &141r 'e0' &59r 'e1' &103r ##1,2
'e0' &26r 'e1' &126r 'e0' r4^64 'e1' &110r ##3,4
'e0' r16^64 'e1' r4.^3 'e0' r4^32 'e1' &97r ##5,6
'e0' r12^64 'e1' &203r ##1152

&85r 'e0' r16^64 'e1' &131r 'e0' r4. ##9,10
'e1' r4.^24 'e0' r12^64 'e1' r1 ##11,12
&81r 'e0' r12^48 'e1' &124r 'e0' r12^64 'e1' &123r ##13,14
'e0' r12^48 'e1' &123r 'e0' r12^48 'e1' r8^48 ##2304

&92r 'e0' r12^48 'e1' &121r 'e0' &23r 'e1' r2^8 ##17,18
'e0' r16^64 'e1' &127r 'e0' &17r 'e1' &123r ##19,20
'e0' r16^32 'e1' &121r 'e0' r12^64 'e1' &121r ##21,22
'e0' &17r 'e1' &123r 'e0' r16^32 'e1' &121r ##23,24 end @3520

'e0' r16^64 'e1' &134r 'e0' r12^48 'e1' &138r ##25,26
'e0' &21r 'e1' r4. 'e0' &17r 'e1' &31r 'e0' &13r 'e1' ##27,28
r1&82r 'e0' r12 'e1' &127r ##29,30
'e0' r12^48 'e1' &122r 'e0' r12^64 'e1' &115r ##31,32 end @4674

'e0' r32^48 'e1' r2^8. 'e0' r12^48 'e1' &124r ##33,34
'e0' &17r 'e1' r2^4 'e0' &21r 'e1' &124r ##35,36
'e0' r16^64 'e1' &148r 'e0' r16^64 'e1' &129r ##37,38
'e0' r24^64 'e1' &130r 'e0' r12^48 'e1' &122r ##39,40 end @5856

'e0' r12^32 'e1' &130r 'e0' r4^24 ##41,42
'e1' r2^24 'e0' r16^64 'e1' r2^4 'e0' r8 ##43,44
'e0' r4.^16 'e1' r24^64 'e0' r4 'e1' r24^64 'e0' r1&214r ##45,46
'e1' &1r ##47,48
;