#TITLE Battle #2
#ALBUM Lufia and the Fortress of Doom
#COMPOSER Yasunori Shiono
#ARRANGED Gi Nattak
# Converted from binary by mfvitools

#WAVE 0x20 -- 0x0D
#WAVE 0x21 -- 0x02
#WAVE 0x22 -- 0x22
#WAVE 0x23 -- 0x21
#WAVE 0x24 -- 0x11
#WAVE 0x25 -- 0x12
#WAVE 0x26 -- 0x0F


{8}
l16t90%v25%x192%b0,70%e1%k1v127p62@32o5>ab<c>b<cdcdedefefgg+  
>a4^a<ceg8^e8^g8   $1 f+1  >a4^a<ceg8^e8^g8  f+1  
f4^fgag+8^e8^<c8  >b8^a2^8>ab<c  d8^c8^d8^c8^d8d+8  e2>b2  
a4^a<ceg8^e8^g8  f+1  >a4^a<ceg8^e8^g8  f+1  
f4^fgag+8^e8^<c8  >b8^a2^8>ab<c  d8^c8^d8^c8^d8d+8  e2er4^e8  
<c8^>a8^b8<c8^>b8^a8  b8^<d8^>g2^8  a8^f8^g8a8^g8^f8  e8^g2^8^fe  
f8^d8^e8f8^e8^d8  e8^c8^e8a4^8b8  <c8^c4^8^c8>b8a8  b2<d2  
o4a4^a<ceg8^e8^g8  
;1

l16
{2}
l16%e1%k1v127p62@32o5r1  >e4^ea<ce8^c8^e8  
 $2 d1  >e4^ea<ce8^c8^e8  d1  >a4<cr8^d8^>b8^g+8  
a2>ab<c>b<cdeg  b8^a8^b8^a8^b8a8  g+2e2  e4^ea<ce8^c8^e8  
d1  >e4^ea<ce8^c8^e8  d1  >a4<cr8^d8^>b8^g+8  
a2>ab<c>b<cdeg  b8^a8^b8^a8^b8a8  g+2g+r4^g+8  a4^8ab<c4d4  
g2d2  >f4^8fga4<c4  >b2g4^8fe  d4^8def8^g8^f8  
e4d4c4cdec  >a2<a4<c4  >b2g+2  e4^ea<ce8^c8^e8  

;2

l16
{3}
l16%e1%k1v80p64@33o5ab<c>b<cdcdedefefgg+  aaaaaaggaaaaaagg  
 $3 dddddddddddddc>ba+  <aaaaaaggaaaaaagg  dddddddddddddc>ba+  <f+f+f+f+f+f+f+f+ffffffff  
aaaaaaaaab<c>b<cdcd  >ffffffffffffffff  f2^4^8f8  aaaaaaggaaaaaagg  
dddddddddddddc>ba+  <aaaaaaggaaaaaagg  dddddddddddddc>ba+  <f+f+f+f+f+f+f+f+ffffffff  
aaaaaaaaab<c>b<cdcd  >f+f+f+f+f+f+f+f+f+f+f+f+f+f+f+f+  f2^r4^f8  
ffffffffffffffff  eeeeeeeeeeeeeeee  dddddddddddddddd  cccccccccccccccc  
dddddddddddddddd  <cccc>bbbbaaaagggg  ffffffffffffffff  <e8^e8^e8e2  
>aaaaaaggaaaaaagg  
;3

l16
{4}
l16%e1%k1v104p64@34o5b8b8b8b8rb32b32b32r^32b32b32b32r^32b32b32  
 $4 b8r8^br8b8rb8br8  ^bbrbbrbrbbrbbrb32b32  b8r8^br8b8rb8br8  ^bbrbbrbrbbrbbrb32b32  
[3br4br8br8brbr8  ]brbrbrbrbrbrbb32b32r8  [2b8r8^br8b8rb8br8  ^bbrbbrbrbbrbbrb32b32  
]br4br8br8brbr8  br4br8br8brbr8  br4br8br8brbr8  ^bbrbbrbr4^b32b32r8  
[6br4br8br8brbr8  ]br4br8br8brbr8  ^bbrbbrbr4^b32b32r8  
;4

l16
{5}
l16%e1%k1v104p64@35o5r2er8er8er8  
^e8^re8r8er8^e8 $5 e  r8er8erer8er8er8  ^e8^re8r8er8^e8e  r8er8erer8er8er8  
^er8^er8^er8^er8  ^er8^er8^er8^er8  ^er8^er8^er8^er2  ^4^8^er8^e8^re8  
r8er8^e8er8er8er  er8er8er8^e8^re8  r8er8^e8er8er8er  er8er8er8^er8^er8  
^er8^er8^er8^er8  ^er8^er8^er8^er8  ^er8^erer8er8ere  r4^e8r8er8^er8  
^er8^er8^[5er8^er8  ^er8^er8^]er8^er8  ^er8^erer8er8ere  r4^e8r8e8^re8r8  
er8^e8
;5

l16
{6}
l16%e1%k1v68p64@36o5f+8f+8f+8f+8v120@37c+8  ^c+8rc+8 $6 v43@38r8f+f+f+f+f+f+f+f+  
f+f+f+f+f+f+v120@37c+8^c+8^c+8c+8  ^c+8^c+8v43@38r8f+f+f+f+f+f+f+f+  
f+f+f+f+f+f+v120@37c+8^c+8^c+8c+8  ^c+8^c+8r8o5v43@38f+32r32f+32r32f+32r32f+32r32f+32r32f+32r32f+32r32f+32r32  
f+32r32f+32r32f+32r32f+32r32f+32r32f+32r32[2f+32r32f+32r32f+32r32f+32r32f+32r32f+32r32f+32r32f+32r32f+32r32f+32r32  
f+32r32f+32r32f+32r32f+32r32f+32r32f+32r32]f+32r32f+32r32f+32r32f+32r32f+32r32f+32r32f+32r32f+32r32f+32r32f+32r32  
f+32r32f+32r32f+32r32f+32r32f+32r32f+32r8^32f+f+f+f+f+f+f+f+  f+f+f+f+f+f+v120@37c+8^c+8^c+8c+8  
^c+8^c+8v43@38r8f+f+f+f+f+f+f+f+  f+f+f+f+f+f+v120@37c+8^c+8^c+8c+8  
^c+8^c+8r8o5v43@38f+32r32f+32r32f+32r32f+32r32f+32r32f+32r32f+32r32f+32r32  
f+32r32f+32r32f+32r32f+32r32f+32r32f+32r32[2f+32r32f+32r32f+32r32f+32r32f+32r32f+32r32f+32r32f+32r32f+32r32f+32r32  
f+32r32f+32r32f+32r32f+32r32f+32r32f+32r32]v120@37c+8^c+8^c+8r2  
^8v43@38f+32r32f+32r32f+32r32f+32r32f+32r32f+32r32f+32r32f+32r32f+32r32f+32r32f+32r32f+32r32f+32r32f+32r32  
[3f+32r32f+32r32f+32r32f+32r32f+32r32f+32r32f+32r32f+32r32f+32r32f+32r32f+32r32f+32r32f+32r32f+32r32f+32r32f+32r8  
^32f+32r32f+32r32f+32r32f+32r32f+32r32f+32r32f+32r32f+32r32f+32r32f+32r32f+32r32f+32r32f+32r32f+32r32]v120@37c+8  
^c+8^c+8c+8^r8^c+8
;6

l16
{7}
l16%e1%k1v120p64@37o6r1  >c+1  r1  
 $7 c+1  r1  c+1  r1  
^1  ^1  c+1  r1  
c+1  r1  c+1  r1  
^1  ^2c+2  [5c+1  r1  
]
;7

l16
