#TITLE A Curious Happening
#ALBUM Secret of Mana
#COMPOSER Hiroki Kikuta
#ARRANGED emberling
# Converted from binary by mfvitools

#VARIANT ~
#VARIANT / nopatch

#WAVE 0x20 -- 0x22
#WAVE 0x21 -- 0x21
#WAVE 0x22 -- 0x0F
#WAVE 0x23 -- ~0x68~ /0x11/
#WAVE 0x24 -- 0x3E
#WAVE 0x25 -- 0x0E
#WAVE 0x26 -- ~0x4F~ /0x08/
#WAVE 0x27 -- ~0x53~ /0x0C/
#WAVE 0x28 -- 0x33


{1}
l16%x145%v11%b0,70 $1 t95p64%e1[2o5v80@32g12g24g8<v127@33g8>v80@32g8g8g8<v127@33g12>v80@32g8g24  
g12g24g8<v127@33g8>v80@32g8g8g8<v127@33g12>v80@32g6  g12g24g8<v127@33g8>v80@32g8g8g8<v127@33g12>v80@32g8g24  
g12g24g8<v127@33g8>v80@32g8g8g8g8.^48g24  g12g24g8<v127@33g8>v80@32g8g8g8<v127@33g12>v80@32g8g24  
g12g24g8<v127@33g8>v80@32g8g8g8<v127@33g8.^48g24  >v80@32g12g24g8<v127@33g8>v80@32g8g8g8<v127@33g12>v80@32g8g24  
g12g24g8<v127@33g8>v80@32g8g24<v127@33g24g24g24g24g24>v80@32g24r8.r48  
]g24r6g24r8g24r2r12  g24r6g24r8g24r2r12  g24r6g24r8g24r2r12  g24r6g24r8g24r8.r48g24g24g24g24r24r24r24r24r24  

;1

l16
{2}
l16p64v75%e1 $2 [2o6@34g24r24g24@35g24r24g24@34g24r24g24@35g24r24g24@34g24r24g24@35g24r24g24@34g24r24g24@35g24r24g24  
@34g24r24g24@35g24r24g24@34g24r24g24@35g24r24g24@34g24g24g24g24g24g24@35g24r12g24r12  
@34g24r24g24@35g24r24g24@34g24r24g24@35g24r24g24@34g24r24g24@35g24r24g24@34g24r24g24@35g24r24g24  
@34g24r24g24@35g24r24g24@34g24r24g24@35g24r24g24@34g24g24g24@35g24@34g24g24g24r24g24@35g24g24g24  
@34g24r24g24@35g24r24g24@34g24r24g24@35g24r24g24@34g24r24g24@35g24r24g24@34g24r24g24@35g24r24g24  
@34g24r24g24@35g24r24g24@34g24r24g24@35g24r24g24@34g24r24g24@35g24r24g24@34g24g24g24@35g24@34g24r24  
g24r24g24@35g24r24g24@34g24r24g24@35g24r24g24@34g24r24g24@35g24r24g24@34g24r24g24@35g24@34g24g24  
g24r24g24@35g24r24g24@34g24r24g24@35g24r24g24@34g24@35g24g24g24g24g24g24r8.r48  
]@34g24r24g24g24r24g24@35g12@34g24g24r24g24g24r24g24g24r24g24@35g24@34g24g24g24r24g24  
g24r24g24g24r24g24@35g12@34g24g24r24g24g24r24g24g24r24g24@35g24@34g24g24g24r24g24  
g24r24g24g24r24g24@35g12@34g24g24r24g24g24r24g24g24r24g24@35g24@34g24g24g24r24g24  
g24r24g24g24r24g24@35g12@34g24g24r24g24g24g24g24g24r24g24@35g24g24g24g8  

;2

l16
{3}
l16 $3 p56v65@36%e1[2o5grf+rgrcrd+rcr>br<cr  r8>f+rgr8.br<crd+rcr  
grf+rgrcrd+rcr>br<cr  r1  grf+rgrcrd+rcr>br<cr  r2>f+rgrbr8.  
<grf+rgrcr8.d+rcr>br  <cr4.rbrbrbr8.  ]p72v45@39%r20<c8.^48c6c4c8c12c8c24  
c8.^48c6c4c8c8r8  c8.^48c6c4c8c12c8c24  c8.^48c6c4c8c8r8  
;3

l16
{4}
l16 $4 p72v60@38%e1m10,14,197r1  
r1  r1  r1  r1  
r1  r1  r1  o5~<~d+12r24f+12r24g12r24f+12r24g4d+12c24>a+12g24  
a+8<c24r2r4r12  d+12r24f+12r24g12r24f+12r24g8.^48<c24>d+12c24>a+12g24  
a+8<c24r2r4r12  <c24>g24a+24f24g24d+24c24>b24<f+24g24f+24c24d+8f8g8a+8  
f12f+48g48<c8>g24f+24a+24d+24c24>a+24g8a+8<c24r12d+8  c24r8.r48d+12e24f12f+24g8a+8g24r24f24d+12c24  
d+8d+8c24r24>a+24f24r24f+24g8a+8<c24r8.r48  ~>~p68v45@39m%r20<r2r8>c8c12c8c24  
r2r8c8c8r8  r2r8c8c12c8c24  r2r8c8c8r8  
;4

l16
{5}
l16 $5 p24v45@37%e1[2o6c8c24r6c24r8c24r6c24r12c24r12d+24  
^8d+24r6d+24r8d+24r6d+24r8.r48c24  ^8c24r6c24r8c24r6c24r12c24r12d+24  
^8d+24r6d+24r8d+24r8.r48<<v65>@40d+8.^48>>v52<@37c24  ^8c24r6c24r8c24r6c24r8.r48d+24  
^8d+24r6d+24r8d+24r4.r24c24  ^8c24r6c24r8c24r6c24r12c24r12d+24  
^8d+24r6d+24r8d+24r4.r12  ]p64v45>@39%r20<c8.^48c6c4r4.  c8.^48c6c4r4.  
c8.^48c6c4r4.  c8.^48c6c4r4r8  
;5

l16
{6}
l16 $6 p40v45@37%e1[2o5a8a24r6a24r8a24r6a24r12a24r12<c24  
^8c24r6c24r8c24r6c24r8.r48>a24  ^8a24r6a24r8a24r6a24r12a24r12<c24  
^8c24r6c24r8c24r8.r48>v65@40<c8.^48>>v52<@37a24  ^8a24r6a24r8a24r6a24r8.r48<c24  
^8c24r6c24r8c24r4.r24>a24  ^8a24r6a24r8a24r6a24r12a24r12<c24  ^8c24r6c24r8c24r4.r12  
]p60v45>@39%r20g8.^48g6g4r4.  g8.^48g6g4r4.  g8.^48g6g4r4.  g8.^48g6g4r4r8  

;6

l16
{7}
l16 $7 p88v45@37%e1[2o5g8g24r6g24r8g24r6g24r12g24r12a+24  
^8a+24r6a+24r8a+24r6a+24r8.r48g24  ^8g24r6g24r8g24r6g24r12g24r12a+24  
^8a+24r6a+24r8a+24r8.r48<v65>@40g8.^48>v52<@37g24  ^8g24r6g24r8g24r6g24r8.r48a+24  
^8a+24r6a+24r8a+24r4.r24g24  ^8g24r6g24r8g24r6g24r12g24r12a+24  
^8a+24r6a+24r8a+24r4.r12  ]p56v45>@39%r20<f+8.^48f+6f+4r4.  f+8.^48f+6f+4r4.  
f+8.^48f+6f+4r4.  f+8.^48f+6f+4r4r8  
;7

l16
{8}
l16 $8 p104v45@37%e1[2o5d+8d+24r6d+24r8d+24r6d+24r12d+24r12f+24  
^8f+24r6f+24r8f+24r6f+24r8.r48d+24  ^8d+24r6d+24r8d+24r6d+24r12d+24r12f+24  
^8f+24r6f+24r8f+24r8.r48<v65>@40f+8.^48>v52<@37d+24  ^8d+24r6d+24r8d+24r6d+24r8.r48f+24  
^8f+24r6f+24r8f+24r4.r24d+24  ^8d+24r6d+24r8d+24r6d+24r12d+24r12f+24  
^8f+24r6f+24r8f+24r4.r12  ]p64v45>@39r1  r1  r1  
r2r4r8r8  
;8

l16
