#TITLE Morning Is Here // To Reach Tomorrow
#ALBUM Secret of Mana
#COMPOSER Hiroki Kikuta
#ARRANGED emberling
##created with sqspcmml beta 1.1.2

#WAVE 0x20 0x43
#WAVE 0x21 0x86
#WAVE 0x22 0x5C
#WAVE 0x23 0x07
#WAVE 0x24 0x81
#WAVE 0x25 0x92
#WAVE 0x26 0x4A

#def 0i=   |0
#def 0o=   o4
#def 0v=   v100
#def 0f= v1,100

#def 1i=   |1 %r20
#def 1o=   o3
#def 1v=   v100
#def 1f= v1,100

#def 2i=   |2
#def 2o=   o5
#def 2v=   v67
#def 2f= v1,67

#def 3i=   |3
#def 3o=   o5
#def 3v=   v100
#def 3f= v1,100

#def 4i=   |4
#def 4o=   o5
#def 4v=   v100
#def 4f= v1,100

#def 5i=   |5
#def 5o=   o5
#def 5v=   v100
#def 5f= v1,100

#def 6i=   |6
#def 6o=   o5
#def 6v=   v200
#def 6f= v1,200

## auto percussion  0x24
#drum "h"= 5a


{1}
t108%x255%v32%b0,20%f0,0
$101p64'6v*v.97'
'6i' %e1{%r18}['6o'[a8.a8.a8.a8.a8g8a8.a8.a8.a8.a8a8]^16g8.g8.g8.g8g8g8g8.
g8.g8.g8.g8g8^16a8.a8.a8.a8a8a8a8.a8.a8.a8.a8a8]g8.g8.g8.g8.g8g8g8.g8.
g8.g8.g8g8f8.f8.f8.f8.f8f8f8.f8.f8.f8.f8f8d8.d8.d8.d8.d8d8d8.d8.d8.d8.
d16r16r8
;101


{2}

$201p96'5v*v.75'
'5i' %e1%a9%r6r1r1r1r1r1r1r1r2.r8'5o-o1'g16a16<e2.^8d16g16c2.c16d16>b16
g16a2.^8<c16>b16a2^8b16g16a16<d16g16b16^16a2.^16g16d16>g2.^8g16a16e2.^16
f+16g16f+16e1'3v*v.37'
'3i' %r8'3o'g16a16<d16e16d16>a16g16a16<d16e16d16>a16g16a16<d16>a16g16a16
<d16e16d16>a16g16a16<d16e16d16>a16g16a16<d16>g16a16b16<e16f16e16>b16a16
b16<e16f16e16>b16a16b16<e16>b16a16b16<e16f16e16>b16a16b16<e16f16e16>b16
a16b16<e16c16d16g16a16b16a16e16d16g16a16b16a16e16d16g16a16e16d16g16a16
b16a16e16d16g16a16b16<c16>b16a16r16r8
;201


{3}

$301p64
'4i' %e1'4o''4v*v.45'" !!!o h32"'4v*v.60'"h32"'4v*v.75'"h32"'4v*v.90'"h32
"'4v*v1.05'"h16"'4v*v.45'"h16"'4v*v.65'"h16"'4v*v1.05'"h16"'4v*v.45'"h16
"'4v*v.65'"h16"'4v*v1.05'"h16"'4v*v.45'"h16"'4v*v.65'"h16"'4v*v1.05'"h16
"'4v*v.55'"h16"'4v*v1.05'"h16"'4v*v.45'"h16"'4v*v.65'"h16"'4v*v.45'"h32
"'4v*v.60'"h32"'4v*v.75'"h32"'4v*v.90'"h32"'4v*v1.05'"h16"'4v*v.45'"h16
"'4v*v.65'"h16"'4v*v1.05'"h16"'4v*v.45'"h16"'4v*v.65'"h16"'4v*v1.05'"h16
"'4v*v.55'"h16"'4v*v1.05'"h16"'4v*v.45'"h16"'4v*v.65'"h16"'4v*v1.05'"h16
"'4v*v.45'"h16"'4v*v.65'"h16
";301


{5}
$401p64'1v*v.82'
'1i' %e1['1o+o1'[a16a16a16a16a16a16a16a16a16a16a16a16a16a16g16g16a16a16
a16a16a16a16a16a16a16a16a16a16a16a16a16a16]a16b16b16b16b16b16b16b16b16
b16b16b16b16b16b16b16b16b16b16b16b16b16b16b16b16b16b16b16b16b16b16b16b16
a16a16a16a16a16a16a16a16a16a16a16a16a16g16g16a16a16a16a16a16a16a16a16a16
a16a16a16a16a16a16a16][b16b16b16b16b16b16b16b16b16b16b16b16b16b16b16b16
]['1o+o2'c16c16c16c16c16c16c16c16c16c16c16c16c16c16c16c16]d16d16d16d16
d16d16d16d16d16d16d16d16d16d16d16d16d16d16d16d16d16d16d16d16d16d16d16d16
e16e16e16e16
;401


{8}
$501p80'2v*v.40'
'2i' %e1%a9%r15['2o-o1'[e8.e8.e8.e8.e8d8e8.e8.e8.e8.e8e8]^16d8.d8.d8.d8
d8d8d8.d8.d8.d8.d8d8^16e8.e8.e8.e8e8e8e8.e8.e8.e8.e8e8]d8.d8.d8.d8.d8d8
d8.d8.d8.d8.d8d8c8.c8.c8.c8.c8c8c8.c8.c8.c8.c8c8>a8.a8.a8.a8.a8a8a8.a8.
a8.a8.a16r16r8
;501


{4}
$601p48'0v*v.52'
'0i' %e1%r17['0o+o1'[e16e8e16e8e16e8e16e8e8d8d16e8e16e8e16e8e16e8e8e8]
e16g8g16g8g16g8g16g8g8g8g16g8g16g8g16g8g16g8g8g8g16e8e16e8e16e8e16e8e8
d8d16e8e16e8e16e8e16e8e8e8]e16g8g16g8g16g8g16g8g8g8g16g8g16g8g16g8g16g8
g8g8g16a8a16a8a16a8a16a8a8a8a16a8a16a8a16a8a16a8a8a8a16<d8d16d8d16d8d16
d8d8d8d16d8d16d8d16d8d16d8d16r16r8
;601


{6}

$701p40'0v*v.52'
'0i' %e1%r17['0o'[b16b8b16b8b16b8b16b8b8a8a16b8b16b8b16b8b16b8b8b8]b16
<d8d16d8d16d8d16d8d8d8d16d8d16d8d16d8d16d8d8d8d16>b8b16b8b16b8b16b8b8a8
a16b8b16b8b16b8b16b8b8b8]b16<d8d16d8d16d8d16d8d8d8d16d8d16d8d16d8d16d8
d8d8d16e8e16e8e16e8e16e8e8e8e16e8e16e8e16e8e16e8e8e8e16a8a16a8a16a8a16
a8a8a8a16a8a16a8a16a8a16a8a16r16r8
;701


{7}

$801p32'0v*v.52'
'0i' %e1%r17['0o'[a16a8a16a8a16a8a16a8a8g8g16a8a16a8a16a8a16a8a8a8]a16
<c8c16c8c16c8c16c8c8c8c16c8c16c8c16c8c16c8c8c8c16>a8a16a8a16a8a16a8a8g8
g16a8a16a8a16a8a16a8a8a8]a16<c8c16c8c16c8c16c8c8c8c16c8c16c8c16c8c16c8
c8c8c16d8d16d8d16d8d16d8d8d8d16d8d16d8d16d8d16d8d8d8d16g8g16g8g16g8g16
g8g8g8g16g8g16g8g16g8g16g8g16r16r8
;801

