#TITLE The Dark Star
#ALBUM Secret of Mana
#COMPOSER Hiroki Kikuta
#ARRANGED emberling
# Converted from binary by mfvitools

#VARIANT ~
#VARIANT / nopatch

#WAVE 0x20 -- ~0x25~ /0x0D/
#WAVE 0x21 -- ~0x40~ /0x0A/
#WAVE 0x22 -- 0x07
#WAVE 0x23 -- ~0x53~ /0x0C/
#WAVE 0x24 -- ~0x5C~ /0x21/
#WAVE 0x25 -- ~0x50~ /0x12/
#WAVE 0x26 -- 0x24


{1}
l16t160%x141%v33%b0,54p32v45@32%e1r48r1  o4e1  f1  g1  
a1  a+1  <c1  d1  
r1  e1  f1  g1  
a1  a+1  <c1  d1  
 $1 @32o6v60r2d2  e2d2  r2c2  d1  
r2c2  d4f4e4d4  r2c2  d1  
r2d2  e2d2  r2c2  d1  
r2c2  d4f4e4d4  r2c2  d1  
%a5v40g1  f1  g1  d1  
e2f2  g1  d1  c2d2  
g1  f1  g1  d1  
e2f2  g1  d1  c2d2  
e1  ^1  ^1  ^1  

;1

l16
{2}
l16p37v40@32%e1r48o4d1  ^1  ^1  ^1  
^1  ^1  ^1  ^1  
<d1  ^1  ^1  ^1  
^1  ^1  ^1  ^1  
 $2 @32o5v57a1  a1  a1  a1  
a1  a1  a1  a1  
a1  a1  a1  a1  
a1  a1  a1  a1  
v42%a5g1  f1  g1  d1  
e2f2  g1  d1  c2d2  
g1  f1  g1  d1  
e2f2  g1  d1  c2d2  
e1  ^1  ^1  ^1  

;2

l16
{3}
l16p42v40@32%e1r64r1  r1  r1  r1  
r1  r1  r1  r1  
o4d1  ^1  ^1  ^1  
^1  ^1  ^1  ^1  
 $3 @32o5v57d1  e1  f1  e1  
d1  e1  f1  g1  
d1  e1  f1  e1  
d1  e1  f1  g1  
%a5v42f1  d+1  f1  c1  
d2d+2  f1  c1  >a+2<c2  
f1  d+1  f1  c1  
d2d+2  f1  c1  >a+2<c2  
>b1  ^1  ^1  ^1  

;3

l16
{4}
l16p47v45@32%e1r64o3d1  ^1  ^1  ^1  
^1  ^1  ^1  ^1  
d1  ^1  ^1  ^1  
^1  ^1  ^1  ^1  
 $4 p96v40@33o4d1  e1  d1  c1  
d1  e1  d1  c1  
d1  e1  d1  c1  
d1  e1  d1  c1  
p47v42@32%a5<c1  >a+1  <c1  >g1  
a2a+2  <c1  >g1  f2g2  
<c1  >a+1  <c1  >g1  
a2a+2  <c1  >g1  f2g2  
f+1  ^1  ^1  ^1  

;4

l16
{5}
l16p96v51@35%e1%r20r48o6d4>g4a4<d4  f4e4c4>g4  a4d4e4f4  
g8f8e4r4c4  <d4>g4a4<d4  f4e4c4g4  f4e4c4d4  
f8e8d4r2  <v61d4>g4a4<d4  f4e4c4>g4  a4d4e4f4  
g8f8e4r4c4  <d4>g4a4<d4  f4e4c4g4  f4e4c4d4  
f8e8d4r2   $5 p91v30@33o3a1  g1  a1  
g1  a1  g1  a1  
g1  a1  g1  a1  
g1  a1  g1  a1  
g1  p96v66@35%r20<<<<d4>d4g4a4  <d4>d4g4a4  <d4>d4g4a4  
<d4>d4g4a4  <d4>d4g4a4  <d4>d4g4a4  <d4>d4g4a4  
<d4>d4g4a4  <d4>d4g4a4  <d4>d4g4a4  <d4>d4g4a4  
<d4>d4g4a4  <d4>d4g4a4  <d4>d4g4a4  <d4>d4g4a4  
<d4>d4g4a4  b4>b4<e4f+4  b4>b4<e4f+4  b4>b4<e4f+4  
b4>b4<e4f+4  p
;5

l16
{6}
l16p80v20@34%e1m15,17,196r48o4d1  e1  
f1  g1  a1  a+1  
<c1  v32d1  d1  e1  
f1  g1  a1  a+1  
<c1  d1   $6 v40o5f12g12f12g12f12g12f12g12f12g12f12g12  f12g12f12g12f12g12f12g12f12g12f12g12  
f12g12f12g12f12g12f12g12f12g12f12g12  f12g12f12g12f12g12f12g12a12a+12a12g12  
f12g12f12g12f12g12f12g12f12g12f12g12  f12g12f12g12f12g12f12g12f12g12f12g12  
f12g12f12g12f12g12f12g12f12g12f12g12  f12g12f12g12f12g12f12e12d12e12f12g12  
f12g12f12g12f12g12f12g12f12g12f12g12  f12g12f12g12f12g12f12g12f12g12f12g12  
f12g12f12g12f12g12f12g12f12g12f12g12  f12g12f12g12f12g12f12g12a12a+12a12g12  
f12g12f12g12f12g12f12g12f12g12f12g12  f12g12f12g12f12g12f12g12f12g12f12g12  
f12g12f12g12f12g12f12g12f12g12f12g12  f12g12f12g12f12g12f12e12d12e12f12g12  
v32>a1  g1  a1  e1  
f+2g2  a+1  a1  e2f2  
a1  g1  a1  e1  
f+2g2  a+1  a1  e2f2  
f+1  ^1  ^1  ^1  

;6

l16
{7}
l16p75v30@34%e1m13,16,196r64o3a1  b1  <c1  d1  
e1  f1  g1  v32a1  
a1  b1  <c1  d1  
e1  f1  g1  a1  
m $7 p64v125@36o5a8r4.v85a8r8a12a12a12  a8r8a8r4.a8r8  a8r4.a8r8a12a12a12  
a8r8a8r4.a8r8  v110a8r4.v85a8r8a12a12a12  a8r8a8r4.a8r8  a8r4.a8r8a12a12a12  
a8r8a8r4.a8r8  v110a8r4.v85a8r8a12a12a12  a8r8a8r4.a8r8  a8r4.a8r8a12a12a12  
a8r8a8r4.a8r8  v110a8r4.v85a8r8a12a12a12  a8r8a8r4.a8r8  a8r4.a8r8a12a12a12  
a8r8a8r4.a8r8  r1  r1  r1  
r1  r1  r1  r1  
r1  r1  r1  r1  
r1  r1  r1  r1  
r1  r1  r1  r1  
v80a12v30a12v20a12v30a12v40a12v50a12v60a12v70a12v80a12v90a12v100a12v110a12  

;7

l16
{8}
l16p32v120@38%e1o5%r18r64[8r1  ]d1  ^1  d1  
^1  d1  ^1  d1  
%y%yv10@36p64a12v15a12v20a12v30a12v40a12v50a12v60a12v70a12v80a12v90a12v100a12v110a12  
 $8 v120@37%r14o5b1  ^1  v112@38%r18a1  ^1  
v120@37%y%r14b1  ^1  v112@38%r18a1  ^1  
v120@37%y%r14b1  ^1  v112@38%r18a1  ^1  
v120@37%y%r14b1  ^1  v112@38%r18a1  ^1  
r1  r1  r1  r1  
r1  r1  r1  r1  
r1  r1  r1  r1  
r1  r1  r1  r1  
b1  <c+2>a2  b2<e2  f+1  

;8

l16
